X:9
T:TEA IN THE MORNING -- Jig.
R:slipjig
B:Coles pg. 75.1
Z:John B. Walsh, <walsh:mat:h.ubc.ca> 5/17/02
M:9/8
L:1/8
K:G
vd2uG GF(G/A/) uB3|G2d d2G A(Bc)|d2 G GF(G/A/) B3|dcB AGF A(Bc)|
d2G GF(G/A/) B3|G2d d2G A(Bc)|d2 G GF(G/A/) B3|dcB AGF A(Bc)|]
vded c2d uB3|G2d d2G A(Bc)|ded c2d B3|dcB AGF A(Bc)|
ded c2d B3|G2d d2G A(Bc)|d2g fdc B3|dcB AGF A(Bc)|]
